X:2918
T:Springdans
C:anon.
O:Norway
S:Eidsvollmusikk II no. 81 1/2
R:Springdans
Z:Transcribed by Frank Nordberg - http://www.musicaviva.com
F:http://abc.musicaviva.com/tunes/norway/springdans01/springdans01-1.abc
M:3/4
L:1/8
K:D
a>a b>g a>f|a>a (3gMeg f2|A2 c>d e>g|(3fMdf e>c A2|
a>a b>g a>f|a>a (3gMeg f2|A2 c>d (3eMgf|e2 d3 z::A2 c>d e>g|
(3fMdf e>c A2|A2 c>d (3eMge|d>f e>g f>d|A>A c>d e>g|
(3fMdf (3eMce d>B|A>B c>d (3eMge|d4 z2 H :|
W:
W:
W:HB. 2-10. 1934
W:
W:
W:  From Musica Viva - http://www.musicaviva.com
W:  the Internet center for free sheet music downloads.

